app/assets/images/icons/active/tram.svg

<?xml version="1.0" encoding="UTF-8" standalone="no"?>
<svg width="32px" height="232px" viewBox="0 0 32 232" version="1.1" xmlns="http://www.w3.org/2000/svg" xmlns:xlink="http://www.w3.org/1999/xlink" xmlns:sketch="http://www.bohemiancoding.com/sketch/ns">
    <title>tram</title>
    <description>Created with Sketch (http://www.bohemiancoding.com/sketch)</description>
    <defs></defs>
    <g id="Transport" stroke="none" stroke-width="1" fill="none" fill-rule="evenodd" sketch:type="MSPage">
        <path d="M23.756,126.678799 L17.729,126.678799 L18.547,124.192143 L21.311,124.192143 C21.912,124.192143 22.402,123.698253 22.402,123.097084 C22.402,122.49389 21.912,122 21.311,122 L10.692,122 C10.089,122 9.598,122.49389 9.598,123.097084 C9.598,123.698253 10.089,124.192143 10.692,124.192143 L13.955,124.192143 L13.139,126.678799 L8.245,126.678799 C6.736,126.678799 5.5,127.684796 5.5,128.910413 L5.5,142.840543 C5.5,144.034785 6.676,145.012445 8.131,145.060012 L7.141,146.65807 C6.961,146.9121 6.866,147.208636 6.866,147.519342 C6.866,148.332034 7.522,149 8.33,149 C8.83,149 9.294,148.744958 9.567,148.309768 L11.578,145.072157 L20.424,145.072157 L22.434,148.309768 C22.709,148.744958 23.17,149 23.67,149 C24.479,149 25.135,148.332034 25.135,147.519342 C25.135,147.208636 25.04,146.9121 24.859,146.65807 L23.87,145.06406 C25.325,145.012445 26.5,144.034785 26.5,142.840543 L26.5,128.910413 C26.5,127.684796 25.266,126.678799 23.756,126.678799 M15.997,143.688657 C14.838,143.688657 13.895,142.786903 13.895,141.681723 C13.895,140.571482 14.838,139.671752 15.997,139.671752 C17.158,139.671752 18.102,140.571482 18.102,141.681723 C18.102,142.786903 17.158,143.688657 15.997,143.688657 M24.107,137.347028 C24.107,137.958318 23.49,138.464353 22.736,138.464353 L9.266,138.464353 C8.51,138.464353 7.894,137.958318 7.894,137.347028 L7.894,129.99434 C7.894,129.38305 8.51,128.879039 9.266,128.879039 L22.736,128.879039 C23.49,128.879039 24.107,129.38305 24.107,129.99434 L24.107,137.347028" id="tram--white" fill="#206FAC" sketch:type="MSShapeGroup"></path>
        <path d="M23.756,86.678799 L17.729,86.678799 L18.547,84.1921433 L21.311,84.1921433 C21.912,84.1921433 22.402,83.6982532 22.402,83.0970837 C22.402,82.4938901 21.912,82 21.311,82 L10.692,82 C10.089,82 9.598,82.4938901 9.598,83.0970837 C9.598,83.6982532 10.089,84.1921433 10.692,84.1921433 L13.955,84.1921433 L13.139,86.678799 L8.245,86.678799 C6.736,86.678799 5.5,87.6847965 5.5,88.9104131 L5.5,102.840543 C5.5,104.034785 6.676,105.012445 8.131,105.060012 L7.141,106.65807 C6.961,106.9121 6.866,107.208636 6.866,107.519342 C6.866,108.332034 7.522,109 8.33,109 C8.83,109 9.294,108.744958 9.567,108.309768 L11.578,105.072157 L20.424,105.072157 L22.434,108.309768 C22.709,108.744958 23.17,109 23.67,109 C24.479,109 25.135,108.332034 25.135,107.519342 C25.135,107.208636 25.04,106.9121 24.859,106.65807 L23.87,105.06406 C25.325,105.012445 26.5,104.034785 26.5,102.840543 L26.5,88.9104131 C26.5,87.6847965 25.266,86.678799 23.756,86.678799 M15.997,103.688657 C14.838,103.688657 13.895,102.786903 13.895,101.681723 C13.895,100.571482 14.838,99.671752 15.997,99.671752 C17.158,99.671752 18.102,100.571482 18.102,101.681723 C18.102,102.786903 17.158,103.688657 15.997,103.688657 M24.107,97.3470275 C24.107,97.9583177 23.49,98.4643527 22.736,98.4643527 L9.266,98.4643527 C8.51,98.4643527 7.894,97.9583177 7.894,97.3470275 L7.894,89.9943399 C7.894,89.3830497 8.51,88.8790389 9.266,88.8790389 L22.736,88.8790389 C23.49,88.8790389 24.107,89.3830497 24.107,89.9943399 L24.107,97.3470275" id="tram--subdued-grey" fill="#FFFFFF" sketch:type="MSShapeGroup"></path>
        <path d="M23.756,46.678799 L17.729,46.678799 L18.547,44.1921433 L21.311,44.1921433 C21.912,44.1921433 22.402,43.6982532 22.402,43.0970837 C22.402,42.4938901 21.912,42 21.311,42 L10.692,42 C10.089,42 9.598,42.4938901 9.598,43.0970837 C9.598,43.6982532 10.089,44.1921433 10.692,44.1921433 L13.955,44.1921433 L13.139,46.678799 L8.245,46.678799 C6.736,46.678799 5.5,47.6847965 5.5,48.9104131 L5.5,62.8405428 C5.5,64.0347852 6.676,65.0124447 8.131,65.060012 L7.141,66.6580703 C6.961,66.9120999 6.866,67.2086363 6.866,67.5193418 C6.866,68.3320339 7.522,69 8.33,69 C8.83,69 9.294,68.7449584 9.567,68.3097683 L11.578,65.0721568 L20.424,65.0721568 L22.434,68.3097683 C22.709,68.7449584 23.17,69 23.67,69 C24.479,69 25.135,68.3320339 25.135,67.5193418 C25.135,67.2086363 25.04,66.9120999 24.859,66.6580703 L23.87,65.0640603 C25.325,65.0124447 26.5,64.0347852 26.5,62.8405428 L26.5,48.9104131 C26.5,47.6847965 25.266,46.678799 23.756,46.678799 M15.997,63.6886573 C14.838,63.6886573 13.895,62.7869031 13.895,61.6817228 C13.895,60.5714821 14.838,59.671752 15.997,59.671752 C17.158,59.671752 18.102,60.5714821 18.102,61.6817228 C18.102,62.7869031 17.158,63.6886573 15.997,63.6886573 M24.107,57.3470275 C24.107,57.9583177 23.49,58.4643527 22.736,58.4643527 L9.266,58.4643527 C8.51,58.4643527 7.894,57.9583177 7.894,57.3470275 L7.894,49.9943399 C7.894,49.3830497 8.51,48.8790389 9.266,48.8790389 L22.736,48.8790389 C23.49,48.8790389 24.107,49.3830497 24.107,49.9943399 L24.107,57.3470275" id="tram--body-grey" fill="#67737B" sketch:type="MSShapeGroup"></path>
        <path d="M23.756,6.67879901 L17.729,6.67879901 L18.547,4.19214334 L21.311,4.19214334 C21.912,4.19214334 22.402,3.69825324 22.402,3.09708374 C22.402,2.4938901 21.912,2 21.311,2 L10.692,2 C10.089,2 9.598,2.4938901 9.598,3.09708374 C9.598,3.69825324 10.089,4.19214334 10.692,4.19214334 L13.955,4.19214334 L13.139,6.67879901 L8.245,6.67879901 C6.736,6.67879901 5.5,7.68479646 5.5,8.91041307 L5.5,22.8405428 C5.5,24.0347852 6.676,25.0124447 8.131,25.060012 L7.141,26.6580703 C6.961,26.9120999 6.866,27.2086363 6.866,27.5193418 C6.866,28.3320339 7.522,29 8.33,29 C8.83,29 9.294,28.7449584 9.567,28.3097683 L11.578,25.0721568 L20.424,25.0721568 L22.434,28.3097683 C22.709,28.7449584 23.17,29 23.67,29 C24.479,29 25.135,28.3320339 25.135,27.5193418 C25.135,27.2086363 25.04,26.9120999 24.859,26.6580703 L23.87,25.0640603 C25.325,25.0124447 26.5,24.0347852 26.5,22.8405428 L26.5,8.91041307 C26.5,7.68479646 25.266,6.67879901 23.756,6.67879901 M15.997,23.6886573 C14.838,23.6886573 13.895,22.7869031 13.895,21.6817228 C13.895,20.5714821 14.838,19.671752 15.997,19.671752 C17.158,19.671752 18.102,20.5714821 18.102,21.6817228 C18.102,22.7869031 17.158,23.6886573 15.997,23.6886573 M24.107,17.3470275 C24.107,17.9583177 23.49,18.4643527 22.736,18.4643527 L9.266,18.4643527 C8.51,18.4643527 7.894,17.9583177 7.894,17.3470275 L7.894,9.99433991 C7.894,9.3830497 8.51,8.87903891 9.266,8.87903891 L22.736,8.87903891 C23.49,8.87903891 24.107,9.3830497 24.107,9.99433991 L24.107,17.3470275" id="tram--title-grey" fill="#3A434E" sketch:type="MSShapeGroup"></path>
    </g>
</svg>

<svg width="32" height="232" viewBox="0 0 32 232" xmlns="http://www.w3.org/2000/svg" xmlns:sketch="http://www.bohemiancoding.com/sketch/ns"><title>tram</title><g sketch:type="MSPage" fill="none"><path d="M23.756 126.679h-6.027l.818-2.487h2.764c.601 0 1.091-.494 1.091-1.095 0-.603-.49-1.097-1.091-1.097h-10.619c-.603 0-1.094.494-1.094 1.097 0 .601.491 1.095 1.094 1.095h3.263l-.816 2.487h-4.894c-1.509 0-2.745 1.006-2.745 2.232v13.93c0 1.194 1.176 2.172 2.631 2.219l-.99 1.598c-.18.254-.275.551-.275.861 0 .813.656 1.481 1.464 1.481.5 0 .964-.255 1.237-.69l2.011-3.238h8.846l2.01 3.238c.275.435.736.69 1.236.69.809 0 1.465-.668 1.465-1.481 0-.311-.095-.607-.276-.861l-.989-1.594c1.455-.052 2.63-1.029 2.63-2.224v-13.93c0-1.226-1.234-2.232-2.744-2.232m-7.759 17.01c-1.159 0-2.102-.902-2.102-2.007 0-1.11.943-2.01 2.102-2.01 1.161 0 2.105.9 2.105 2.01 0 1.105-.944 2.007-2.105 2.007m8.11-6.342c0 .611-.617 1.117-1.371 1.117h-13.47c-.756 0-1.372-.506-1.372-1.117v-7.353c0-.611.616-1.115 1.372-1.115h13.47c.754 0 1.371.504 1.371 1.115v7.353" fill="#206FAC" sketch:type="MSShapeGroup"/><path d="M23.756 86.679h-6.027l.818-2.487h2.764c.601 0 1.091-.494 1.091-1.095 0-.603-.49-1.097-1.091-1.097h-10.619c-.603 0-1.094.494-1.094 1.097 0 .601.491 1.095 1.094 1.095h3.263l-.816 2.487h-4.894c-1.509 0-2.745 1.006-2.745 2.232v13.93c0 1.194 1.176 2.172 2.631 2.219l-.99 1.598c-.18.254-.275.551-.275.861 0 .813.656 1.481 1.464 1.481.5 0 .964-.255 1.237-.69l2.011-3.238h8.846l2.01 3.238c.275.435.736.69 1.236.69.809 0 1.465-.668 1.465-1.481 0-.311-.095-.607-.276-.861l-.989-1.594c1.455-.052 2.63-1.029 2.63-2.224v-13.93c0-1.226-1.234-2.232-2.744-2.232m-7.759 17.01c-1.159 0-2.102-.902-2.102-2.007 0-1.11.943-2.01 2.102-2.01 1.161 0 2.105.9 2.105 2.01 0 1.105-.944 2.007-2.105 2.007m8.11-6.342c0 .611-.617 1.117-1.371 1.117h-13.47c-.756 0-1.372-.506-1.372-1.117v-7.353c0-.611.616-1.115 1.372-1.115h13.47c.754 0 1.371.504 1.371 1.115v7.353" fill="#fff" sketch:type="MSShapeGroup"/><path d="M23.756 46.679h-6.027l.818-2.487h2.764c.601 0 1.091-.494 1.091-1.095 0-.603-.49-1.097-1.091-1.097h-10.619c-.603 0-1.094.494-1.094 1.097 0 .601.491 1.095 1.094 1.095h3.263l-.816 2.487h-4.894c-1.509 0-2.745 1.006-2.745 2.232v13.93c0 1.194 1.176 2.172 2.631 2.219l-.99 1.598c-.18.254-.275.551-.275.861 0 .813.656 1.481 1.464 1.481.5 0 .964-.255 1.237-.69l2.011-3.238h8.846l2.01 3.238c.275.435.736.69 1.236.69.809 0 1.465-.668 1.465-1.481 0-.311-.095-.607-.276-.861l-.989-1.594c1.455-.052 2.63-1.029 2.63-2.224v-13.93c0-1.226-1.234-2.232-2.744-2.232m-7.759 17.01c-1.159 0-2.102-.902-2.102-2.007 0-1.11.943-2.01 2.102-2.01 1.161 0 2.105.9 2.105 2.01 0 1.105-.944 2.007-2.105 2.007m8.11-6.342c0 .611-.617 1.117-1.371 1.117h-13.47c-.756 0-1.372-.506-1.372-1.117v-7.353c0-.611.616-1.115 1.372-1.115h13.47c.754 0 1.371.504 1.371 1.115v7.353" fill="#67737B" sketch:type="MSShapeGroup"/><path d="M23.756 6.679h-6.027l.818-2.487h2.764c.601 0 1.091-.494 1.091-1.095 0-.603-.49-1.097-1.091-1.097h-10.619c-.603 0-1.094.494-1.094 1.097 0 .601.491 1.095 1.094 1.095h3.263l-.816 2.487h-4.894c-1.509 0-2.745 1.006-2.745 2.232v13.93c0 1.194 1.176 2.172 2.631 2.219l-.99 1.598c-.18.254-.275.551-.275.861 0 .813.656 1.481 1.464 1.481.5 0 .964-.255 1.237-.69l2.011-3.238h8.846l2.01 3.238c.275.435.736.69 1.236.69.809 0 1.465-.668 1.465-1.481 0-.311-.095-.607-.276-.861l-.989-1.594c1.455-.052 2.63-1.029 2.63-2.224v-13.93c0-1.226-1.234-2.232-2.744-2.232m-7.759 17.01c-1.159 0-2.102-.902-2.102-2.007 0-1.11.943-2.01 2.102-2.01 1.161 0 2.105.9 2.105 2.01 0 1.105-.944 2.007-2.105 2.007m8.11-6.342c0 .611-.617 1.117-1.371 1.117h-13.47c-.756 0-1.372-.506-1.372-1.117v-7.353c0-.611.616-1.115 1.372-1.115h13.47c.754 0 1.371.504 1.371 1.115v7.353" fill="#3A434E" sketch:type="MSShapeGroup"/></g></svg>
